www/assets/icons/sick.svg

<svg xmlns="http://www.w3.org/2000/svg" width="24" height="24" viewBox="0 0 24 24" fill='currentColor'><path d="M20.5 9c-1.1 0-2-.9-2-2s2-4 2-4 2 2.9 2 4-.9 2-2 2M17 7c0-.73.41-1.71.92-2.66A9.97 9.97 0 0 0 11.49 2C5.97 2 1.5 6.48 1.5 12s4.47 10 9.99 10c5.53 0 10.01-4.48 10.01-10 0-.55-.06-1.09-.14-1.62a3.5 3.5 0 0 1-.86.12C18.57 10.5 17 8.93 17 7m-1.88.38 1.06 1.06-1.06 1.06 1.06 1.06-1.06 1.06L13 9.5zm-8.3 1.06 1.06-1.06L10 9.5l-2.12 2.12-1.06-1.06L7.88 9.5zM14.94 17a3.98 3.98 0 0 0-3.44-2c-1.47 0-2.75.81-3.44 2H6.38c.3-.76.76-1.43 1.34-1.99L4.74 13.3c-.45.26-1.01.28-1.49 0a1.501 1.501 0 0 1 1.5-2.6c.48.28.74.78.74 1.29l3.58 2.07c.73-.36 1.55-.56 2.43-.56 2.33 0 4.32 1.45 5.12 3.5z"/></svg>

<svg width="24" height="24" viewBox="0 0 24 24" xmlns="http://www.w3.org/2000/svg" fill='currentColor'><path d="M20.5 9C19.4 9 18.5 8.1 18.5 7C18.5 5.9 20.5 3 20.5 3C20.5 3 22.5 5.9 22.5 7C22.5 8.1 21.6 9 20.5 9ZM17 7C17 6.27 17.41 5.29 17.92 4.34C16.18 2.88 13.94 2 11.49 2C5.97 2 1.5 6.48 1.5 12C1.5 17.52 5.97 22 11.49 22C17.02 22 21.5 17.52 21.5 12C21.5 11.45 21.44 10.91 21.36 10.38C21.08 10.45 20.8 10.5 20.5 10.5C18.57 10.5 17 8.93 17 7ZM15.12 7.38L16.18 8.44L15.12 9.5L16.18 10.56L15.12 11.62L13 9.5L15.12 7.38ZM6.82 8.44L7.88 7.38L10 9.5L7.88 11.62L6.82 10.56L7.88 9.5L6.82 8.44ZM14.94 17C14.25 15.81 12.97 15 11.5 15C10.03 15 8.75 15.81 8.06 17H6.38C6.68 16.24 7.14 15.57 7.72 15.01L4.74 13.3C4.29 13.56 3.73 13.58 3.25 13.3C2.53 12.89 2.29 11.97 2.7 11.25C3.11 10.53 4.03 10.29 4.75 10.7C5.23 10.98 5.49 11.48 5.49 11.99L9.07 14.06C9.8 13.7 10.62 13.5 11.5 13.5C13.83 13.5 15.82 14.95 16.62 17H14.94Z"/></svg>
